!!!OTL: 2026. Altes Mailied in der Bittwoche.
!!!ARE: Europa, Mitteleuropa, Deutschland, Wuerttemberg
!!!SCT: E2026
!!!TXL: @@DE
!!!YEM: Copyright 1995, estate of Helmut Schaffrath.
**kern	**text
*ICvox	*
*M4/4	*
*met(c)	*
*k[f#]	*
*G:	*
!LO:TX:a:t=Württemberger Melodie. Mündlich 1874 und 1888.	!
{4d	Wer
=1	=1
4g	ſich
4d	des
(8gqq	.
4b/)	Mai-
4a	-en
=2	=2
(8bL	freu-
8ccJ	.
4b)	.
4a}	-et
{8gL	in
8bJ	.
=3	=3
8aL	die-
8gJ	.
4f#	-ſer
8gL	heil-
8f#J	.
4f#	-gen
=4	=4
2d	Ʒeit,
4r}	.
{4d	Der
=5	=5
4g	geh
4d	ʒu
(8gqq	.
4b/)	Je-
4a	-ſu
=6	=6
(8bL	Chri-
8ccJ	.
4b)	.
4a}	-ſto,
{8gL	der
8bJ	.
=7	=7
8aL	in
8gJ	.
4f#	dem
8gL	Mai-
8f#J	.
4f#	-en
=8	=8
2d	leit,
4r}	.
{(4b	leit,
=9	=9
2dd)	.
8g/L	leit,
8a	.
8b	.
8ddJ	.
=10	=10
2.cc;}	.
{8aL	ſo
8ccJ	.
=11	=11
8bL	findt
8aJ	.
8gL	er
8f#J	.
(8gqq	.
4b/)	wah-
4a	-re
=12	=12
2.g}	Freud.
==	==
!!!AGN: geistlich, Wallfahrts - Lied
!!!ONB: ESAC (Essen Associative Code) Database: ERK3
!!!AMT: simple quadruple
!!!AIN: vox
!!!EED: Helmut Schaffrath
!!!EEV: 1.0
!!!GTL: 4. Katholische Lieder: a) Wallfahrtlieder zur Bittwoche und zum Fronleichnamstag.
!!!URL-scan: https://rosdok.uni-rostock.de/mcrviewer/recordIdentifier/rosdok_ppn745177999/iview2/phys_0733.iview2?x=134.79316673390872&y=1197.0230620536022&scale=0.7014306698522891&rotation=0&layout=singlePageLayout
!!!ENC: Anna Maria Matuszewska
!!!EEV: 2025/10/01
*-	*-
